X: 10793
M: 6/8
L: 1/8
K: Bb
(f/e/) |\
ded cdc | B2F FGA | BcB cdc | ded c2(f/e/) |\
ded cdc | B2F FGA | BcB c2d | ecA B2 H|]
(d/e/) |\
fdb f2(d/e/) | fdb f2(d/e/) | fdb fdb | fed c2(d/e/) |\
fdb f2(d/e/) | fdb fga | b2g cd=e | fg=e fe"^D.C."_e |]
K: Bbm
(B2=A) (B2A) | B2c d2f | (fe).d (cB).=A | B2F F2F |\
(B2=A) (B2A) | B2c d2f | (g2f) e2d | c3- "^D.C."c2 |]


